icons/svg/shields/h_observatory_shield.svg

<?xml version="1.0" encoding="UTF-8" standalone="no"?>
<!-- Created with Inkscape (http://www.inkscape.org/) -->

<svg
   xmlns:dc="http://purl.org/dc/elements/1.1/"
   xmlns:cc="http://creativecommons.org/ns#"
   xmlns:rdf="http://www.w3.org/1999/02/22-rdf-syntax-ns#"
   xmlns:svg="http://www.w3.org/2000/svg"
   xmlns="http://www.w3.org/2000/svg"
   xmlns:sodipodi="http://sodipodi.sourceforge.net/DTD/sodipodi-0.dtd"
   xmlns:inkscape="http://www.inkscape.org/namespaces/inkscape"
   version="1.0"
   width="16"
   height="16"
   id="svg2"
   sodipodi:version="0.32"
   inkscape:version="0.48.4 r9939"
   sodipodi:docname="h_observatory_astronomical_shield.svg"
   inkscape:output_extension="org.inkscape.output.svg.inkscape">
  <metadata
     id="metadata2975">
    <rdf:RDF>
      <cc:Work
         rdf:about="">
        <dc:format>image/svg+xml</dc:format>
        <dc:type
           rdf:resource="http://purl.org/dc/dcmitype/StillImage" />
        <cc:license
           rdf:resource="http://web.resource.org/cc/PublicDomain" />
        <dc:language>en</dc:language>
        <dc:title></dc:title>
      </cc:Work>
    </rdf:RDF>
  </metadata>
  <sodipodi:namedview
     inkscape:window-height="1004"
     inkscape:window-width="1920"
     inkscape:pageshadow="2"
     inkscape:pageopacity="0.0"
     guidetolerance="10.0"
     gridtolerance="10.0"
     objecttolerance="10.0"
     borderopacity="1.0"
     bordercolor="#666666"
     pagecolor="#ffffff"
     id="base"
     inkscape:zoom="32"
     inkscape:cx="5.7275396"
     inkscape:cy="7.4640925"
     inkscape:window-x="1680"
     inkscape:window-y="0"
     inkscape:current-layer="svg2"
     showgrid="false"
     inkscape:window-maximized="1" />
  <defs
     id="defs4">
    <inkscape:perspective
       sodipodi:type="inkscape:persp3d"
       inkscape:vp_x="0 : 290 : 1"
       inkscape:vp_y="0 : 1000 : 0"
       inkscape:vp_z="580 : 290 : 1"
       inkscape:persp3d-origin="290 : 193.33333 : 1"
       id="perspective2441" />
    <inkscape:perspective
       id="perspective3452"
       inkscape:persp3d-origin="30 : 20 : 1"
       inkscape:vp_z="60 : 30 : 1"
       inkscape:vp_y="0 : 1000 : 0"
       inkscape:vp_x="0 : 30 : 1"
       sodipodi:type="inkscape:persp3d" />
    <symbol
       viewBox="244.5 110 489 219.9"
       id="symbol-university">
      <path
         id="path4460"
         d="m 79,43 57,119 c 0,0 21,-96 104,-96 83,0 124,106 124,106 L 407,39 489,22 0,17 79,43 z"
         inkscape:connector-curvature="0" />
      <path
         id="path4462"
         d="M 94,176 73,215"
         inkscape:connector-curvature="0"
         style="fill:none;stroke:#000000;stroke-width:20" />
      <path
         id="path4464"
         d="M 300,19 C 300,29.5 277.4,38 249.5,38 221.6,38 199,29.5 199,19 199,8.5 221.6,0 249.5,0 277.4,0 300,8.5 300,19 z"
         inkscape:connector-curvature="0" />
      <path
         id="path4466"
         d="M 112,216 96,178 64,88 C 64,88 55,80 60,53 65,26 76,29 76,29"
         ill="none"
         inkscape:connector-curvature="0"
         style="stroke:#000000;stroke-width:20" />
    </symbol>
    <inkscape:perspective
       id="perspective4471"
       inkscape:persp3d-origin="372.04724 : 350.78739 : 1"
       inkscape:vp_z="744.09448 : 526.18109 : 1"
       inkscape:vp_y="0 : 1000 : 0"
       inkscape:vp_x="0 : 526.18109 : 1"
       sodipodi:type="inkscape:persp3d" />
    <inkscape:perspective
       id="perspective4668"
       inkscape:persp3d-origin="6 : 4 : 1"
       inkscape:vp_z="12 : 6 : 1"
       inkscape:vp_y="0 : 1000 : 0"
       inkscape:vp_x="0 : 6 : 1"
       sodipodi:type="inkscape:persp3d" />
  </defs>
  <path
     sodipodi:type="inkscape:offset"
     inkscape:radius="1.0215957"
     inkscape:original="M 8 0.9375 C 5.9098533 0.9375 4.3196714 3.0517427 4.25 3.15625 C 4.1454925 3.295593 4.1454925 3.454407 4.25 3.59375 C 4.319671 3.6982575 5.9098533 5.8125 8 5.8125 C 10.090146 5.8125 11.680328 3.6982575 11.75 3.59375 C 11.854507 3.454407 11.854507 3.295593 11.75 3.15625 C 11.680328 3.0517427 10.090147 0.9375 8 0.9375 z M 8 1.625 C 8.9754021 1.625 9.75 2.3995981 9.75 3.375 C 9.75 4.3504018 8.9754021 5.125 8 5.125 C 7.0245982 5.125 6.25 4.3504018 6.25 3.375 C 6.25 2.3995981 7.0245982 1.625 8 1.625 z M 8 2.5 C 7.5190182 2.5 7.125 2.8940182 7.125 3.375 C 7.125 3.8559818 7.5190182 4.25 8 4.25 C 8.4809818 4.25 8.875 3.8559818 8.875 3.375 C 8.875 2.8940182 8.4809818 2.5 8 2.5 z M 6.53125 6.84375 L 4.5625 14.6875 L 11.4375 14.6875 L 9.46875 6.84375 L 6.53125 6.84375 z M 7.0625 8.8125 L 8.96875 8.8125 L 9.21875 9.78125 L 6.8125 9.78125 L 7.0625 8.8125 z M 6.5625 10.78125 L 9.46875 10.78125 L 9.6875 11.75 L 6.3125 11.75 L 6.5625 10.78125 z M 6.0625 12.71875 L 9.9375 12.71875 L 10.1875 13.71875 L 5.8125 13.71875 L 6.0625 12.71875 z "
     style="opacity:0.69029852;color:#000000;fill:#f1eae4;fill-opacity:1;fill-rule:nonzero;stroke:none;stroke-width:1.01682901;marker:none;visibility:visible;display:inline;overflow:visible;enable-background:accumulate"
     id="path4032"
     d="m 8,-0.09375 c -1.389531,0 -2.5095826,0.6863735 -3.28125,1.3125 -0.3858337,0.3130632 -0.6862706,0.630476 -0.90625,0.875 -0.1966875,0.2186332 -0.2691271,0.2837984 -0.375,0.4375 -0.00608,0.0081 0.00585,0.022913 0,0.03125 -0.00833,0.012254 -0.022347,0.017896 -0.03125,0.03125 L 3.4375,2.625 c -0.2592101,0.4215707 -0.2592101,1.0784293 0,1.5 L 3.40625,4.15625 c 0.0089,0.013355 0.022917,0.018996 0.03125,0.03125 0.0046,0.00676 -0.00446,0.024778 0,0.03125 0.1058769,0.1537084 0.1783125,0.2188667 0.375,0.4375 0.2199794,0.2445241 0.5204162,0.5619368 0.90625,0.875 C 5.0034895,5.762286 5.375196,5.9799782 5.75,6.1875 A 1.0216979,1.0216979 0 0 0 5.53125,6.59375 L 3.5625,14.4375 a 1.0216979,1.0216979 0 0 0 1,1.28125 l 6.875,0 a 1.0216979,1.0216979 0 0 0 1,-1.28125 L 10.46875,6.59375 A 1.0216979,1.0216979 0 0 0 10.25,6.1875 c 0.374804,-0.2075218 0.74651,-0.425214 1.03125,-0.65625 0.385834,-0.3130632 0.686271,-0.630476 0.90625,-0.875 0.196687,-0.2186332 0.26913,-0.2838042 0.375,-0.4375 0.0045,-0.00647 -0.0046,-0.02449 0,-0.03125 0.0083,-0.012253 0.02235,-0.017897 0.03125,-0.03125 L 12.5625,4.125 c 0.259209,-0.4215704 0.259209,-1.0784296 0,-1.5 l 0.03125,-0.03125 c -0.0089,-0.013353 -0.02292,-0.018997 -0.03125,-0.03125 -0.0046,-0.00676 0.0045,-0.024779 0,-0.03125 C 12.456632,2.3775564 12.384187,2.3123832 12.1875,2.09375 11.967521,1.8492261 11.667084,1.5318133 11.28125,1.21875 10.509583,0.59262349 9.3895311,-0.09375 8,-0.09375 z" />
</svg>

<?xml version="1.0" encoding="UTF-8" standalone="no"?>
<!-- Created with Inkscape (http://www.inkscape.org/) -->

<svg
   xmlns:dc="http://purl.org/dc/elements/1.1/"
   xmlns:cc="http://creativecommons.org/ns#"
   xmlns:rdf="http://www.w3.org/1999/02/22-rdf-syntax-ns#"
   xmlns:svg="http://www.w3.org/2000/svg"
   xmlns="http://www.w3.org/2000/svg"
   xmlns:sodipodi="http://sodipodi.sourceforge.net/DTD/sodipodi-0.dtd"
   xmlns:inkscape="http://www.inkscape.org/namespaces/inkscape"
   version="1.0"
   width="16"
   height="16"
   id="svg2"
   sodipodi:version="0.32"
   inkscape:version="0.91 r13725"
   sodipodi:docname="h_observatory_shield.svg"
   inkscape:output_extension="org.inkscape.output.svg.inkscape">
  <metadata
     id="metadata2975">
    <rdf:RDF>
      <cc:Work
         rdf:about="">
        <dc:format>image/svg+xml</dc:format>
        <dc:type
           rdf:resource="http://purl.org/dc/dcmitype/StillImage" />
        <cc:license
           rdf:resource="http://web.resource.org/cc/PublicDomain" />
        <dc:language>en</dc:language>
        <dc:title />
      </cc:Work>
    </rdf:RDF>
  </metadata>
  <sodipodi:namedview
     inkscape:window-height="1006"
     inkscape:window-width="1920"
     inkscape:pageshadow="2"
     inkscape:pageopacity="0.0"
     guidetolerance="10.0"
     gridtolerance="10.0"
     objecttolerance="10.0"
     borderopacity="1.0"
     bordercolor="#666666"
     pagecolor="#ffffff"
     id="base"
     inkscape:zoom="32"
     inkscape:cx="8.6962896"
     inkscape:cy="8.6828425"
     inkscape:window-x="1920"
     inkscape:window-y="0"
     inkscape:current-layer="svg2"
     showgrid="false"
     inkscape:window-maximized="1" />
  <defs
     id="defs4">
    <inkscape:perspective
       sodipodi:type="inkscape:persp3d"
       inkscape:vp_x="0 : 290 : 1"
       inkscape:vp_y="0 : 1000 : 0"
       inkscape:vp_z="580 : 290 : 1"
       inkscape:persp3d-origin="290 : 193.33333 : 1"
       id="perspective2441" />
    <inkscape:perspective
       id="perspective3452"
       inkscape:persp3d-origin="30 : 20 : 1"
       inkscape:vp_z="60 : 30 : 1"
       inkscape:vp_y="0 : 1000 : 0"
       inkscape:vp_x="0 : 30 : 1"
       sodipodi:type="inkscape:persp3d" />
    <symbol
       viewBox="244.5 110 489 219.9"
       id="symbol-university">
      <path
         id="path4460"
         d="m 79,43 57,119 c 0,0 21,-96 104,-96 83,0 124,106 124,106 L 407,39 489,22 0,17 79,43 z"
         inkscape:connector-curvature="0" />
      <path
         id="path4462"
         d="M 94,176 73,215"
         inkscape:connector-curvature="0"
         style="fill:none;stroke:#000000;stroke-width:20" />
      <path
         id="path4464"
         d="M 300,19 C 300,29.5 277.4,38 249.5,38 221.6,38 199,29.5 199,19 199,8.5 221.6,0 249.5,0 277.4,0 300,8.5 300,19 z"
         inkscape:connector-curvature="0" />
      <path
         id="path4466"
         d="M 112,216 96,178 64,88 C 64,88 55,80 60,53 65,26 76,29 76,29"
         ill="none"
         inkscape:connector-curvature="0"
         style="stroke:#000000;stroke-width:20" />
    </symbol>
    <inkscape:perspective
       id="perspective4471"
       inkscape:persp3d-origin="372.04724 : 350.78739 : 1"
       inkscape:vp_z="744.09448 : 526.18109 : 1"
       inkscape:vp_y="0 : 1000 : 0"
       inkscape:vp_x="0 : 526.18109 : 1"
       sodipodi:type="inkscape:persp3d" />
    <inkscape:perspective
       id="perspective4668"
       inkscape:persp3d-origin="6 : 4 : 1"
       inkscape:vp_z="12 : 6 : 1"
       inkscape:vp_y="0 : 1000 : 0"
       inkscape:vp_x="0 : 6 : 1"
       sodipodi:type="inkscape:persp3d" />
  </defs>
  <path
     sodipodi:type="inkscape:offset"
     inkscape:radius="1.0215957"
     inkscape:original="M 8 0.9375 C 5.9098533 0.9375 4.3196714 3.0517427 4.25 3.15625 C 4.1454925 3.295593 4.1454925 3.454407 4.25 3.59375 C 4.319671 3.6982575 5.9098533 5.8125 8 5.8125 C 10.090146 5.8125 11.680328 3.6982575 11.75 3.59375 C 11.854507 3.454407 11.854507 3.295593 11.75 3.15625 C 11.680328 3.0517427 10.090147 0.9375 8 0.9375 z M 8 1.625 C 8.9754021 1.625 9.75 2.3995981 9.75 3.375 C 9.75 4.3504018 8.9754021 5.125 8 5.125 C 7.0245982 5.125 6.25 4.3504018 6.25 3.375 C 6.25 2.3995981 7.0245982 1.625 8 1.625 z M 8 2.5 C 7.5190182 2.5 7.125 2.8940182 7.125 3.375 C 7.125 3.8559818 7.5190182 4.25 8 4.25 C 8.4809818 4.25 8.875 3.8559818 8.875 3.375 C 8.875 2.8940182 8.4809818 2.5 8 2.5 z M 6.53125 6.84375 L 4.5625 14.6875 L 11.4375 14.6875 L 9.46875 6.84375 L 6.53125 6.84375 z M 7.0625 8.8125 L 8.96875 8.8125 L 9.21875 9.78125 L 6.8125 9.78125 L 7.0625 8.8125 z M 6.5625 10.78125 L 9.46875 10.78125 L 9.6875 11.75 L 6.3125 11.75 L 6.5625 10.78125 z M 6.0625 12.71875 L 9.9375 12.71875 L 10.1875 13.71875 L 5.8125 13.71875 L 6.0625 12.71875 z "
     style="color:#000000;display:inline;overflow:visible;visibility:visible;opacity:0.82399998;fill:#ebe7e4;fill-opacity:1;fill-rule:nonzero;stroke:none;stroke-width:1.01682901;marker:none;enable-background:accumulate"
     id="path4032"
     d="m 8,-0.08398437 c -1.389531,0 -2.5037232,0.67270162 -3.2753906,1.29882817 C 4.3387757,1.527907 4.0324794,1.8375072 3.8125,2.0820312 3.6102707,2.3068247 3.544662,2.3861619 3.4335938,2.5488281 c -0.3234585,0.4367825 -0.3234585,1.2155613 0,1.6523438 C 3.5446666,4.3638459 3.6102706,4.4431752 3.8125,4.6679688 4.0324794,4.9124928 4.3387756,5.222093 4.7246094,5.5351562 5.0071219,5.7643853 5.3827059,5.9772346 5.7539062,6.1835938 A 1.0216979,1.0216979 0 0 0 5.5410156,6.5957031 l -1.96875,7.8437499 A 1.0216979,1.0216979 0 0 0 4.5625,15.708984 l 6.875,0 a 1.0216979,1.0216979 0 0 0 0.990234,-1.269531 l -1.96875,-7.8437499 a 1.0216979,1.0216979 0 0 0 -0.21289,-0.4121093 c 0.3712,-0.2063592 0.746784,-0.4192086 1.029297,-0.6484376 0.385833,-0.3130632 0.69213,-0.6226635 0.912109,-0.8671874 0.202229,-0.2247935 0.267842,-0.3041374 0.378906,-0.4667969 0.323457,-0.4367826 0.323457,-1.2155612 0,-1.6523438 C 12.455343,2.3861711 12.389729,2.3068247 12.1875,2.0820312 11.967521,1.8375073 11.661224,1.527907 11.275391,1.2148438 10.503723,0.58871724 9.3895311,-0.08398437 8,-0.08398437 Z"
     transform="matrix(0.857,0,0,0.857,1.1439999,1.1171875)" />
</svg>
